X:1
T:Title
%%score { ( 1 4 ) | ( 2 3 ) }
L:1/8
Q:1/4=112
M:4/4
K:G
V:1 treble nm="Grand Piano"
V:4 treble 
V:2 treble 
V:3 treble 
V:1
 B3 c B2 A2 | G3 A B4 | [FA]3 [FA] [GB]2 [Ac]2 | B6 z2 | B3 c B2 A2 | G3 A B4 | A2 G2 B2 A2 | %7
w: O.~L.~Carter * * *|||||||
[M:3/4] G6 |[M:1/4] B[Ac] |[M:4/4] [Bd]2 [Bd]2 [Bd]2 [Bd]2 | z4 z2 .e2 | B2 B2 B2 B2 | B6 G2 | %13
w: ||||||
 [FA]6 G2 | [FA]6 [GB]2 | [Fc]3 [FB] [Fd]2 [Fc]2 | [GB]6 [GB][Ac] | [Bd]2 [Bd]2 [Bd]2 [Bd]2 | %18
w: |||||
 z4 z2 .e2 | B2 B2 B2 B2 | B6 G2 | [DFA]6 [B,G]2 | [DFA]6 [B,G]2 | %23
w: |||||
[M:9/8] [CFA]3 [B,G] [DFB]2- [DFB] [CFA]2 |[M:4/4] [B,G]6 z2 |] %25
w: ||
V:2
 [G,DG]3 [G,EG] [G,DG]2 [G,CF]2 | B,3 [CF] [G,DG]4 | [D,D]3 [D,D] [D,D]2 [D,D]2 | [G,DG]6 z2 | %4
 [G,DG]3 [G,EG] [G,DG]2 [G,CF]2 | B,3 [CF] [G,DG]4 | [D,CD]2 [D,B,D]2 [D,D]2 [D,CD]2 | %7
[M:3/4] [G,B,D]6 |[M:1/4][K:treble] [G,DG][G,D] |[M:4/4] [G,D]2 [G,D]2 [G,D]2 B,C | G,6 [G,B,]2 | %11
 [G,DG]2 [G,DG]2 [G,DG]2 [G,DG]2 | [G,DG]6[K:bass] [G,B,]2 | [D,D]6 [D,B,]2 | [D,D]6 [D,D]2 | %15
 [D,D]3 [D,D] [D,D]2 [D,C]2 | [G,D]6 [G,D][G,D] | [G,D]2 [G,D]2 [G,D]2 B,C | G,6 [G,B,]2 | %19
 [G,DG]2 [G,DG]2 [G,DG]2 [G,DG]2 | [G,DG]6[K:bass] [G,B,]2 | D,6 D,2 | D,6 D,2 | %23
[M:9/8] D,3 D, D,2- D, D,2 |[M:4/4] G,6 z2 |] %25
V:3
 x8 | G,4 z4 | x8 | x8 | x8 | G,4 z4 | x8 |[M:3/4] x6 |[M:1/4][K:treble] x2 |[M:4/4] z4 z2 G,2 | %10
 x8 | x8 | x6[K:bass] x2 | x8 | x8 | x8 | x8 | z4 z2 G,2 | x8 | x8 | x6[K:bass] x2 | x8 | x8 | %23
[M:9/8] x9 |[M:4/4] x8 |] %25
V:4
 x8 | x8 | x8 | x8 | x8 | x8 | x8 |[M:3/4] x6 |[M:1/4] x2 |[M:4/4] x8 | [DBd]6 B-[Bd] | x8 | x8 | %13
 x8 | x8 | x8 | x8 | x8 | [DBd]6 B-[Bd] | x8 | x8 | x8 | x8 |[M:9/8] x9 |[M:4/4] x8 |] %25

